X:4605
T:New Mown Meadow, The
O:england
R:reel
H:Also played in Ador (#500), and rarely in Ddor, #739
D:Noel Hill agus Tony McMahon: \'I gCnoc na Gra\'i
M:C|
K:Edor
BEED E2FA|BdcA BAFA|BE~E2 FDFA|A2BA FEFA|
BEED E2FA|BdcA BAFA|d2dB c2cB|1 AcBA FEFA:|2 AcBA FAcd||
e2ce fece|e2cA BAFA|e2ce fecB|AcBA FAE2|
e2ce fece|e2cA BAFA|d2dB c2cB|1 AcBA FAcd:|2 AcBA FEFA||
